X:252
T: KOENIG CHRISTIAN LEBE WOHL
N: F0442
O: Europa, Mitteleuropa, Deutschland
R: Vaterlands -, Heimat - Lied, nationalistisch
M: 4/4
L: 1/8
K: G
G2B2 | d2BGc2AF | G2z2
AGFE | D2c2c2B2 | A2z6 |
dcBAGAG=F | E2G2c2C2 |
ed^cBABAG | F2A2d2D2 |
G2(3GABA2(3ABc | BABcd2z2 |
gddcB2c2 | B4z4 |
dcBAGAG=F | E2G2c2C2 |
ed^cBABAG | F2A2d2D2 |
G2(3GABA2(3ABc | BABcd2z2 |
gddcB2c2 | B2z2

@@@ Tune index: 5683
